packages/core/icons/tp-settings.svg

<svg viewBox="0 0 24 24">
  <title>settings</title>
  <style>
    :host {
      --stroke: var(--tp-color-neutral-10);
      --stroke-width: 2;
    }

    :host {
      font-size: 24px;
      stroke: inherit;
    }

    :host path {
      stroke: var(--stroke);
      stroke-width: var(--stroke-width);
      fill: none;
      stroke-linecap: round;
      stroke-linejoin: round;
    }

    :host(.ion-color) path {
      --stroke: var(--ion-color-base) !important;
    }

    :host([tp-size='sm']) {
      /* --stroke-width: 1.5; */
      font-size: 16px;
    }

    :host([tp-size='md']) {
      /* --stroke-width: 3; */
      font-size: 32px;
    }

    :host([tp-size='lg']) {
      /* --stroke-width: 4; */
      font-size: 48px;
    }
  </style>
  <g clip-path="url(#clip0_5000_48894)">
    <path d="M12 15C13.6569 15 15 13.6569 15 12C15 10.3431 13.6569 9 12 9C10.3431 9 9 10.3431 9 12C9 13.6569 10.3431 15 12 15Z"/>
    <path d="M19.4 15C19.2669 15.3016 19.2272 15.6362 19.286 15.9606C19.3448 16.285 19.4995 16.5843 19.73 16.82L19.79 16.88C19.976 17.0657 20.1235 17.2863 20.2241 17.5291C20.3248 17.7719 20.3766 18.0322 20.3766 18.295C20.3766 18.5578 20.3248 18.8181 20.2241 19.0609C20.1235 19.3037 19.976 19.5243 19.79 19.71C19.6043 19.896 19.3837 20.0435 19.1409 20.1441C18.8981 20.2448 18.6378 20.2966 18.375 20.2966C18.1122 20.2966 17.8519 20.2448 17.6091 20.1441C17.3663 20.0435 17.1457 19.896 16.96 19.71L16.9 19.65C16.6643 19.4195 16.365 19.2648 16.0406 19.206C15.7162 19.1472 15.3816 19.1869 15.08 19.32C14.7842 19.4468 14.532 19.6572 14.3543 19.9255C14.1766 20.1938 14.0813 20.5082 14.08 20.83V21C14.08 21.5304 13.8693 22.0391 13.4942 22.4142C13.1191 22.7893 12.6104 23 12.08 23C11.5496 23 11.0409 22.7893 10.6658 22.4142C10.2907 22.0391 10.08 21.5304 10.08 21V20.91C10.0723 20.579 9.96512 20.258 9.77251 19.9887C9.5799 19.7194 9.31074 19.5143 9 19.4C8.69838 19.2669 8.36381 19.2272 8.03941 19.286C7.71502 19.3448 7.41568 19.4995 7.18 19.73L7.12 19.79C6.93425 19.976 6.71368 20.1235 6.47088 20.2241C6.22808 20.3248 5.96783 20.3766 5.705 20.3766C5.44217 20.3766 5.18192 20.3248 4.93912 20.2241C4.69632 20.1235 4.47575 19.976 4.29 19.79C4.10405 19.6043 3.95653 19.3837 3.85588 19.1409C3.75523 18.8981 3.70343 18.6378 3.70343 18.375C3.70343 18.1122 3.75523 17.8519 3.85588 17.6091C3.95653 17.3663 4.10405 17.1457 4.29 16.96L4.35 16.9C4.58054 16.6643 4.73519 16.365 4.794 16.0406C4.85282 15.7162 4.81312 15.3816 4.68 15.08C4.55324 14.7842 4.34276 14.532 4.07447 14.3543C3.80618 14.1766 3.49179 14.0813 3.17 14.08H3C2.46957 14.08 1.96086 13.8693 1.58579 13.4942C1.21071 13.1191 1 12.6104 1 12.08C1 11.5496 1.21071 11.0409 1.58579 10.6658C1.96086 10.2907 2.46957 10.08 3 10.08H3.09C3.42099 10.0723 3.742 9.96512 4.0113 9.77251C4.28059 9.5799 4.48572 9.31074 4.6 9C4.73312 8.69838 4.77282 8.36381 4.714 8.03941C4.65519 7.71502 4.50054 7.41568 4.27 7.18L4.21 7.12C4.02405 6.93425 3.87653 6.71368 3.77588 6.47088C3.67523 6.22808 3.62343 5.96783 3.62343 5.705C3.62343 5.44217 3.67523 5.18192 3.77588 4.93912C3.87653 4.69632 4.02405 4.47575 4.21 4.29C4.39575 4.10405 4.61632 3.95653 4.85912 3.85588C5.10192 3.75523 5.36217 3.70343 5.625 3.70343C5.88783 3.70343 6.14808 3.75523 6.39088 3.85588C6.63368 3.95653 6.85425 4.10405 7.04 4.29L7.1 4.35C7.33568 4.58054 7.63502 4.73519 7.95941 4.794C8.28381 4.85282 8.61838 4.81312 8.92 4.68H9C9.29577 4.55324 9.54802 4.34276 9.72569 4.07447C9.90337 3.80618 9.99872 3.49179 10 3.17V3C10 2.46957 10.2107 1.96086 10.5858 1.58579C10.9609 1.21071 11.4696 1 12 1C12.5304 1 13.0391 1.21071 13.4142 1.58579C13.7893 1.96086 14 2.46957 14 3V3.09C14.0013 3.41179 14.0966 3.72618 14.2743 3.99447C14.452 4.26276 14.7042 4.47324 15 4.6C15.3016 4.73312 15.6362 4.77282 15.9606 4.714C16.285 4.65519 16.5843 4.50054 16.82 4.27L16.88 4.21C17.0657 4.02405 17.2863 3.87653 17.5291 3.77588C17.7719 3.67523 18.0322 3.62343 18.295 3.62343C18.5578 3.62343 18.8181 3.67523 19.0609 3.77588C19.3037 3.87653 19.5243 4.02405 19.71 4.21C19.896 4.39575 20.0435 4.61632 20.1441 4.85912C20.2448 5.10192 20.2966 5.36217 20.2966 5.625C20.2966 5.88783 20.2448 6.14808 20.1441 6.39088C20.0435 6.63368 19.896 6.85425 19.71 7.04L19.65 7.1C19.4195 7.33568 19.2648 7.63502 19.206 7.95941C19.1472 8.28381 19.1869 8.61838 19.32 8.92V9C19.4468 9.29577 19.6572 9.54802 19.9255 9.72569C20.1938 9.90337 20.5082 9.99872 20.83 10H21C21.5304 10 22.0391 10.2107 22.4142 10.5858C22.7893 10.9609 23 11.4696 23 12C23 12.5304 22.7893 13.0391 22.4142 13.4142C22.0391 13.7893 21.5304 14 21 14H20.91C20.5882 14.0013 20.2738 14.0966 20.0055 14.2743C19.7372 14.452 19.5268 14.7042 19.4 15Z"/>
  </g>
  <defs>
    <clipPath id="clip0_5000_48894">
      <rect/>
    </clipPath>
  </defs>
</svg>

<svg viewBox="0 0 24 24">
  <title>settings</title>
  <style>
    :host {
      --stroke: var(--tp-color-neutral-10);
      --stroke-width: 2;
    }

    :host {
      font-size: 24px;
      stroke: inherit;
    }

    :host path {
      stroke: var(--stroke);
      stroke-width: var(--stroke-width);
      fill: none;
      stroke-linecap: round;
      stroke-linejoin: round;
    }

    :host(.ion-color) path {
      --stroke: var(--ion-color-base) !important;
    }

    :host([tp-size='sm']) {
      /* --stroke-width: 1.5; */
      font-size: 16px;
    }

    :host([tp-size='md']) {
      /* --stroke-width: 3; */
      font-size: 32px;
    }

    :host([tp-size='lg']) {
      /* --stroke-width: 4; */
      font-size: 48px;
    }
  </style>
  <path d="M12 15c1.657 0 3-1.343 3-3s-1.343-3-3-3c-1.657 0-3 1.343-3 3s1.343 3 3 3z"></path>
  <path d="M19.4 15c-0.133 0.302-0.173 0.636-0.114 0.961s0.213 0.624 0.444 0.859l0.060 0.060c0.186 0.186 0.333 0.406 0.434 0.649s0.153 0.503 0.153 0.766-0.052 0.523-0.153 0.766c-0.101 0.243-0.248 0.463-0.434 0.649s-0.406 0.333-0.649 0.434c-0.243 0.101-0.503 0.153-0.766 0.153s-0.523-0.052-0.766-0.153c-0.243-0.101-0.463-0.248-0.649-0.434l-0.060-0.060c-0.236-0.231-0.535-0.385-0.859-0.444s-0.659-0.019-0.961 0.114c-0.296 0.127-0.548 0.337-0.726 0.606s-0.273 0.583-0.274 0.904v0.17c0 0.53-0.211 1.039-0.586 1.414s-0.884 0.586-1.414 0.586c-0.53 0-1.039-0.211-1.414-0.586s-0.586-0.884-0.586-1.414v-0.090c-0.008-0.331-0.115-0.652-0.308-0.921s-0.462-0.474-0.772-0.589c-0.302-0.133-0.636-0.173-0.961-0.114s-0.624 0.213-0.859 0.444l-0.060 0.060c-0.186 0.186-0.406 0.333-0.649 0.434s-0.503 0.153-0.766 0.153-0.523-0.052-0.766-0.153c-0.243-0.101-0.463-0.248-0.649-0.434s-0.333-0.406-0.434-0.649-0.152-0.503-0.152-0.766c0-0.263 0.052-0.523 0.152-0.766s0.248-0.463 0.434-0.649l0.060-0.060c0.231-0.236 0.385-0.535 0.444-0.859s0.019-0.659-0.114-0.961c-0.127-0.296-0.337-0.548-0.606-0.726s-0.583-0.273-0.904-0.274h-0.17c-0.53 0-1.039-0.211-1.414-0.586s-0.586-0.884-0.586-1.414c0-0.53 0.211-1.039 0.586-1.414s0.884-0.586 1.414-0.586h0.090c0.331-0.008 0.652-0.115 0.921-0.307s0.474-0.462 0.589-0.772c0.133-0.302 0.173-0.636 0.114-0.961s-0.213-0.624-0.444-0.859l-0.060-0.060c-0.186-0.186-0.333-0.406-0.434-0.649s-0.152-0.503-0.152-0.766c0-0.263 0.052-0.523 0.152-0.766s0.248-0.463 0.434-0.649c0.186-0.186 0.406-0.333 0.649-0.434s0.503-0.152 0.766-0.152c0.263 0 0.523 0.052 0.766 0.152s0.463 0.248 0.649 0.434l0.060 0.060c0.236 0.231 0.535 0.385 0.859 0.444s0.659 0.019 0.961-0.114h0.080c0.296-0.127 0.548-0.337 0.726-0.606s0.273-0.583 0.274-0.904v-0.17c0-0.53 0.211-1.039 0.586-1.414s0.884-0.586 1.414-0.586c0.53 0 1.039 0.211 1.414 0.586s0.586 0.884 0.586 1.414v0.090c0.001 0.322 0.097 0.636 0.274 0.904s0.43 0.479 0.726 0.606c0.302 0.133 0.636 0.173 0.961 0.114s0.624-0.213 0.859-0.444l0.060-0.060c0.186-0.186 0.406-0.333 0.649-0.434s0.503-0.152 0.766-0.152c0.263 0 0.523 0.052 0.766 0.152s0.463 0.248 0.649 0.434c0.186 0.186 0.333 0.406 0.434 0.649s0.153 0.503 0.153 0.766-0.052 0.523-0.153 0.766c-0.101 0.243-0.248 0.463-0.434 0.649l-0.060 0.060c-0.231 0.236-0.385 0.535-0.444 0.859s-0.019 0.659 0.114 0.961v0.080c0.127 0.296 0.337 0.548 0.606 0.726s0.583 0.273 0.904 0.274h0.17c0.53 0 1.039 0.211 1.414 0.586s0.586 0.884 0.586 1.414c0 0.53-0.211 1.039-0.586 1.414s-0.884 0.586-1.414 0.586h-0.090c-0.322 0.001-0.636 0.097-0.905 0.274s-0.479 0.43-0.606 0.726z"></path>
</svg>
